X:1
T: Alan Grant
C:
R:Reel
I:speed 232
Q:232
K:G
M:4/4
L:1/8
|:FE|D2FG A2FA|d2Ad fe dc|B2dB Ad fa|gf ed cA GE|
D2FG A2FA|d2Ad fe dc|B2eg fd ec|d2D2 D2:|
ag|f2ed e2cA|d2ef c2BA|Bd cB A2FA|Ee ed cA ag|
f2ed e2cA|d2ef c2BA|Bb ag fd ec|d2D2 D2ag|
f2ed e2cA|d2ef c2BA|Bd cB AF DF|Ee ed cA GE|
D2FG A2FA|d2Ad fe dc|B2eg fd ec|d2D2 D2||
